public/imgs/story/story-partener-1.svg

<svg fill="none" height="89" viewBox="0 0 89 89" width="89" xmlns="http://www.w3.org/2000/svg" xmlns:xlink="http://www.w3.org/1999/xlink"><linearGradient id="a" gradientUnits="userSpaceOnUse" x1="33.1089" x2="76.7106" y1="76.9569" y2="33.3592"><stop offset="0" stop-color="#b090f5"/><stop offset="1" stop-color="#5fbfff"/></linearGradient><linearGradient id="b" gradientUnits="userSpaceOnUse" x1="11.2856" x2="54.9277" y1="54.6368" y2="10.9988"><stop offset="0" stop-color="#68d7fa"/><stop offset="1" stop-color="#4ee498"/></linearGradient><clipPath id="c"><path d="m0 0h88.45v88.45h-88.45z"/></clipPath><clipPath id="d"><path d="m13 13h62v62h-62z"/></clipPath><g clip-path="url(#c)"><path d="m44.225 88.45c24.4248 0 44.225-19.8002 44.225-44.225s-19.8002-44.225-44.225-44.225-44.225 19.8002-44.225 44.225 19.8002 44.225 44.225 44.225z" fill="#fff"/><g clip-path="url(#d)"><path d="m70.926 28.6114-1.3715-2.3396c-.363-.6454-1.2101-.8874-1.8555-.5244-.121.0807-.2017.121-.2824.242l-3.0657 3.0657c-.4437.4841-.5244 1.2102-.1614 1.7346 1.1295 1.6942 2.017 3.5498 2.6624 5.486 4.2355 12.6259-2.5413 26.3006-15.1269 30.5361-2.4606.8471-5.0826 1.2505-7.7046 1.2505-3.9532 0-7.8257-.9681-11.2948-2.7833l5.2037-5.2037c8.8744 3.3481 18.838-1.1295 22.1861-10.0039 1.6538-4.4372 1.4521-9.3181-.6051-13.594-.3227-.6858-1.1698-.9681-1.8556-.6454-.121.0807-.2823.1613-.363.2823l-3.1061 3.1061c-.3227.3227-.484.8068-.363 1.2908l.2824 1.1295c1.2908 5.5667-2.138 11.093-7.7047 12.4242-2.5413.6051-5.2036.2017-7.4626-1.0891l-1.3715-.7665c-.5244-.3227-1.2101-.2017-1.6538.2017l-12.7066 12.7066c-.5244.5244-.5244 1.4118 0 1.9362.0403.0404.0807.0807.121.1211l1.8556 1.4521c5.4053 4.1549 12.0208 6.4138 18.838 6.3735 17.1034-.0404 30.9798-13.9167 30.9798-31.0202-.0403-5.4457-1.4522-10.73-4.0742-15.3689z" fill="url(#a)"/><path d="m62.8178 19.373c-5.4053-4.1548-12.0208-6.4138-18.838-6.3734-17.1034 0-30.9798 13.9167-30.9798 31.0201 0 5.365 1.4118 10.6493 4.0742 15.3286l1.3311 2.3396c.3631.6454 1.2102.8875 1.8959.5244.1211-.0403.2017-.121.2824-.2017l3.0657-3.0657c.4437-.4841.5244-1.2101.1614-1.7345-1.1295-1.6943-2.0169-3.5498-2.6624-5.4861-4.2355-12.6258 2.5414-26.3005 15.1269-30.5361 2.4606-.8471 5.0826-1.2505 7.7046-1.2505 3.9532 0 7.8257.9682 11.2948 2.8237l-5.1633 5.123c-8.8745-3.3481-18.838 1.0891-22.1861 10.0039-.7261 1.9362-1.1295 4.0338-1.1295 6.0911 0 .2824.0807 1.5732.121 1.8152.2017 1.9766.7664 3.9128 1.6136 5.6877.3227.6858 1.1698.9681 1.8555.6454.121-.0806.2824-.1613.3631-.2823l3.106-3.1061c.3227-.3227.4841-.8068.3631-1.2908l-.2824-1.1295c-1.2908-5.5667 2.1379-11.093 7.6643-12.4242 2.5413-.6051 5.2036-.2017 7.5029 1.0891l1.3715.7665c.5244.3227 1.2101.2017 1.6539-.2017l12.7065-12.7066c.5244-.5244.5244-1.4118 0-1.9362-.0403-.0404-.0806-.0807-.121-.121z" fill="url(#b)"/></g></g></svg>

<svg width="89" height="89" viewBox="0 0 89 89" fill="none" xmlns="http://www.w3.org/2000/svg">
<g clip-path="url(#clip0_5686_17656)">
<path d="M44.225 88.45C68.6498 88.45 88.45 68.6498 88.45 44.225C88.45 19.8002 68.6498 0 44.225 0C19.8002 0 0 19.8002 0 44.225C0 68.6498 19.8002 88.45 44.225 88.45Z" fill="white"/>
<g clip-path="url(#clip1_5686_17656)">
<path d="M70.926 28.6114L69.5545 26.2718C69.1915 25.6264 68.3444 25.3844 67.699 25.7474C67.578 25.8281 67.4973 25.8684 67.4166 25.9894L64.3509 29.0551C63.9072 29.5392 63.8265 30.2653 64.1895 30.7897C65.319 32.4839 66.2065 34.3395 66.8519 36.2757C71.0874 48.9016 64.3106 62.5763 51.725 66.8118C49.2644 67.6589 46.6424 68.0623 44.0204 68.0623C40.0672 68.0623 36.1947 67.0942 32.7256 65.279L37.9293 60.0753C46.8037 63.4234 56.7673 58.9458 60.1154 50.0714C61.7692 45.6342 61.5675 40.7533 59.5103 36.4774C59.1876 35.7916 58.3405 35.5093 57.6547 35.832C57.5337 35.9127 57.3724 35.9933 57.2917 36.1143L54.1856 39.2204C53.8629 39.5431 53.7016 40.0272 53.8226 40.5112L54.105 41.6407C55.3958 47.2074 51.967 52.7337 46.4003 54.0649C43.859 54.67 41.1967 54.2666 38.9377 52.9758L37.5662 52.2093C37.0418 51.8866 36.3561 52.0076 35.9124 52.411L23.2058 65.1176C22.6814 65.642 22.6814 66.5294 23.2058 67.0538C23.2461 67.0942 23.2865 67.1345 23.3268 67.1749L25.1824 68.627C30.5877 72.7819 37.2032 75.0408 44.0204 75.0005C61.1238 74.9601 75.0002 61.0838 75.0002 43.9803C74.9599 38.5346 73.548 33.2503 70.926 28.6114Z" fill="url(#paint0_linear_5686_17656)"/>
<path d="M62.8178 19.373C57.4125 15.2182 50.797 12.9592 43.9798 12.9996C26.8764 12.9996 13 26.9163 13 44.0197C13 49.3847 14.4118 54.669 17.0742 59.3483L18.4053 61.6879C18.7684 62.3333 19.6155 62.5754 20.3012 62.2123C20.4223 62.172 20.5029 62.0913 20.5836 62.0106L23.6493 58.9449C24.093 58.4608 24.1737 57.7348 23.8107 57.2104C22.6812 55.5161 21.7938 53.6606 21.1483 51.7243C16.9128 39.0985 23.6897 25.4238 36.2752 21.1882C38.7358 20.3411 41.3578 19.9377 43.9798 19.9377C47.933 19.9377 51.8055 20.9059 55.2746 22.7614L50.1113 27.8844C41.2368 24.5363 31.2733 28.9735 27.9252 37.8883C27.1991 39.8245 26.7957 41.9221 26.7957 43.9794C26.7957 44.2618 26.8764 45.5526 26.9167 45.7946C27.1184 47.7712 27.6831 49.7074 28.5303 51.4823C28.853 52.1681 29.7001 52.4504 30.3858 52.1277C30.5068 52.0471 30.6682 51.9664 30.7489 51.8454L33.8549 48.7393C34.1776 48.4166 34.339 47.9325 34.218 47.4485L33.9356 46.319C32.6448 40.7523 36.0735 35.226 41.5999 33.8948C44.1412 33.2897 46.8035 33.6931 49.1028 34.9839L50.4743 35.7504C50.9987 36.0731 51.6844 35.9521 52.1282 35.5487L64.8347 22.8421C65.3591 22.3177 65.3591 21.4303 64.8347 20.9059C64.7944 20.8655 64.7541 20.8252 64.7137 20.7849L62.8178 19.373Z" fill="url(#paint1_linear_5686_17656)"/>
</g>
</g>
<defs>
<linearGradient id="paint0_linear_5686_17656" x1="33.1089" y1="76.9569" x2="76.7106" y2="33.3592" gradientUnits="userSpaceOnUse">
<stop stop-color="#B090F5"/>
<stop offset="1" stop-color="#5FBFFF"/>
</linearGradient>
<linearGradient id="paint1_linear_5686_17656" x1="11.2856" y1="54.6368" x2="54.9277" y2="10.9988" gradientUnits="userSpaceOnUse">
<stop stop-color="#68D7FA"/>
<stop offset="1" stop-color="#4EE498"/>
</linearGradient>
<clipPath id="clip0_5686_17656">
<rect width="88.45" height="88.45" fill="white"/>
</clipPath>
<clipPath id="clip1_5686_17656">
<rect width="62" height="62" fill="white" transform="translate(13 13)"/>
</clipPath>
</defs>
</svg>
